X:5
T:The Ballad of John Henry
M:4/4
L:1/8
K:Ab clef=treble
EF | A A3 AAFE | A A3- A4 EE | AAAA _A F2 E- | E4 z2 z E | A2 AA AAAA | 
_cBAF  AAAA | z c cc BAFA | c2 c2 A4 | z c cc BAFA | A6 z2 || 
W: When John Henry was a little baby,
W: Sitting on his pappy's knee,
W: He grabbed a hammer and a little piece of steel,
W: Said, "This hammer'll be the death of me, Lord, Lord.
W: This hammer'll be the death of me."
W: 
W: Now, the captain he said to John Henry,
W: I'm gonna bring that steam drill around.
W: I'm gonna take that steam drill out on the job,
W: I'm gonna whop that steel on down, Lord, Lord.
W: Gonna whop that steel on down."
W: 
W: John Henry told his captain,
W: "That a man ain't nothing but a man,
W: But before I let that steam drill beat me down,
W: I'll die with my hammer in my hand, Lord, Lord.
W: I'll die with my hammer in my hand."
W: 
W: John Henry said to his shaker,
W: "Now, shaker, why don't you sing?
W: 'Cause I'm throwing twelve pounds from my hips on down.
W: Just listen to that cold steel ring, Lord, Lord.
W: Just listen to that cold steel ring."
W: 
W: The man that invented the steam drill,
W: He thought he was mighty fine.
W: But John Henry, he made fourteen feet
W: While the steam drill only made nine, Lord, Lord.
W: The steam drill only made nine.
W: 
W: John Henry hammered on the mountain
W: Till his hammer was striking fire.
W: He drove so hard he broke his poor heart.
W: Then, he laid down his hammer and he died, Lord, Lord.
W: Laid down his hammer and he died
W: .
W: They took John Henry to the graveyard,
W: And they buried him in the sand.
W: And every locomotive comes rolling on by
W: Says, "Here lies a steel-driving man, Lord, Lord.
W: Here lies a steel-driving man."
W: 
W: Now, some say he was born in Texas,
W: And some say he was born in Maine.
W: But I don't give a damn where that poor boy was born.
W: He was a steel-driving man, Lord, Lord.
W: He was a steel-driving man

